packages/icons/svg/Fill/flip-2.svg

<svg width="24" height="24" viewBox="0 0 24 24" fill="none" xmlns="http://www.w3.org/2000/svg">
<g id="Icon/Fill/flip-2">
<path id="Mask" fill-rule="evenodd" clip-rule="evenodd" d="M7.20701 9.707C6.81601 10.098 6.18401 10.098 5.79301 9.707L2.79301 6.707C2.40201 6.316 2.40201 5.684 2.79301 5.293L5.79301 2.293C5.98801 2.098 6.24401 2 6.50001 2C6.75601 2 7.01201 2.098 7.20701 2.293C7.59801 2.684 7.59801 3.316 7.20701 3.707L5.91401 5H17.91C19.89 5 21.5 6.583 21.5 8.529V11C21.5 11.553 21.053 12 20.5 12C19.947 12 19.5 11.553 19.5 11V8.529C19.5 7.686 18.787 7 17.91 7L5.91401 7L7.20701 8.293C7.59801 8.684 7.59801 9.316 7.20701 9.707ZM18.0858 19H6.08981C4.11081 19 2.49981 17.417 2.49981 15.471V13C2.49981 12.447 2.94681 12 3.49981 12C4.05281 12 4.49981 12.447 4.49981 13V15.471C4.49981 16.313 5.21281 17 6.08981 17H18.0858L16.7928 15.707C16.4028 15.316 16.4028 14.684 16.7928 14.293C16.9878 14.098 17.2438 14 17.4998 14C17.7558 14 18.0118 14.098 18.2068 14.293L21.2068 17.293C21.5978 17.684 21.5978 18.316 21.2068 18.707L18.2068 21.707C17.8168 22.098 17.1838 22.098 16.7928 21.707C16.4028 21.316 16.4028 20.684 16.7928 20.293L18.0858 19Z" fill="#000000"/>
</g>
</svg>

<svg fill="none" height="24" viewBox="0 0 24 24" width="24" xmlns="http://www.w3.org/2000/svg"><path clip-rule="evenodd" d="m7.20698 9.70711c-.391.39099-1.023.39099-1.414 0l-3-3c-.391-.391-.391-1.023 0-1.414l3-3c.195-.195.451-.293.707-.293s.512.098.707.293c.391.391.391 1.023 0 1.414l-1.293 1.293h11.99602c1.98 0 3.59 1.583 3.59 3.529v2.47099c0 .553-.447 1-1 1s-1-.447-1-1v-2.47099c0-.843-.713-1.529-1.59-1.529h-11.99602l1.293 1.293c.391.391.391 1.023 0 1.414zm10.87882 9.29309h-11.99602c-1.979 0-3.59-1.583-3.59-3.529v-2.471c0-.553.447-1 1-1s1 .447 1 1v2.471c0 .842.713 1.529 1.59 1.529h11.99602l-1.293-1.293c-.39-.391-.39-1.023 0-1.414.195-.195.451-.293.707-.293s.512.098.707.293l3 3c.391.391.391 1.023 0 1.414l-3 3c-.39.391-1.023.391-1.414 0-.39-.391-.39-1.023 0-1.414z" fill="#6b7280" fill-rule="evenodd"/></svg>
